build/img/timer-number-tablet.svg

<svg width="106" height="70" viewBox="0 0 106 70" fill="none" xmlns="http://www.w3.org/2000/svg">
<path d="M48.9062 70H1V59.9219L18.2031 42.5312C23.2969 37.3125 26.625 33.7031 28.1875 31.7031C29.75 29.6719 30.875 27.7969 31.5625 26.0781C32.25 24.3594 32.5938 22.5781 32.5938 20.7344C32.5938 17.9844 31.8281 15.9375 30.2969 14.5938C28.7969 13.25 26.7812 12.5781 24.25 12.5781C21.5938 12.5781 19.0156 13.1875 16.5156 14.4062C14.0156 15.625 11.4062 17.3594 8.6875 19.6094L0.8125 10.2812C4.1875 7.40625 6.98438 5.375 9.20312 4.1875C11.4219 3 13.8438 2.09375 16.4688 1.46875C19.0938 0.8125 22.0312 0.484375 25.2812 0.484375C29.5625 0.484375 33.3438 1.26563 36.625 2.82812C39.9062 4.39062 42.4531 6.57812 44.2656 9.39062C46.0781 12.2031 46.9844 15.4219 46.9844 19.0469C46.9844 22.2031 46.4219 25.1719 45.2969 27.9531C44.2031 30.7031 42.4844 33.5312 40.1406 36.4375C37.8281 39.3438 33.7344 43.4844 27.8594 48.8594L19.0469 57.1562V57.8125H48.9062V70ZM105.297 55.7969H97.0469V70H82.8906V55.7969H53.6406V45.7188L83.6875 1.46875H97.0469V44.5469H105.297V55.7969ZM82.8906 44.5469V32.9219C82.8906 30.9844 82.9688 28.1719 83.125 24.4844C83.2812 20.7969 83.4062 18.6563 83.5 18.0625H83.125C81.9688 20.625 80.5781 23.125 78.9531 25.5625L66.3906 44.5469H82.8906Z" fill="#D22856"/>
</svg>

<svg width="106" height="70" fill="none" xmlns="http://www.w3.org/2000/svg"><path d="M48.906 70H1V59.922l17.203-17.39c5.094-5.22 8.422-8.829 9.985-10.829 1.562-2.031 2.687-3.906 3.375-5.625a14.26 14.26 0 001.03-5.344c0-2.75-.765-4.797-2.296-6.14-1.5-1.344-3.516-2.016-6.047-2.016-2.656 0-5.234.61-7.734 1.828-2.5 1.219-5.11 2.953-7.828 5.203L.811 10.281c3.375-2.875 6.172-4.906 8.391-6.094C11.422 3 13.843 2.095 16.47 1.47c2.624-.658 5.56-.986 8.81-.986 4.282 0 8.063.782 11.344 2.344 3.281 1.563 5.828 3.75 7.64 6.563 1.813 2.812 2.72 6.03 2.72 9.656 0 3.156-.563 6.125-1.688 8.906-1.094 2.75-2.813 5.578-5.156 8.485-2.313 2.906-6.407 7.046-12.282 12.421l-8.812 8.297v.657h29.86V70zm56.391-14.203h-8.25V70H82.89V55.797H53.64V45.719l30.047-44.25h13.359v43.078h8.25v11.25zm-22.406-11.25V32.922c0-1.938.078-4.75.234-8.438.156-3.687.281-5.828.375-6.422h-.375a52.27 52.27 0 01-4.172 7.5L66.391 44.547h16.5z" fill="#D22856"/></svg>
